X:3
T:Sunset over Foula
C:Ronnie Cooper
L:1/4
M:3/4
O:Scotland
R:Waltz
Z:Richard Robinson
%%TUNEURL: http://www.leeds.ac.uk/music/Info/RRTuneBk/gettune/000009de.html
%%ID:000009de
K:D
A |\
d2e | d2F | A3 | F2A | B2c | d2F | (A3 | A2)A |\
f2g | f2e | d3 | A2d | B2c | d2F | (E3 | E2)A |
d2e | d2F | A3 | F2A | B2c | d2F | (A3 | A2)A |\
f2g | f2e | d3 | B2d | A2d | f2e | (d3 | d2) |]
